X: 1
T: The Rakes Of Mallow
R: polka
M: 2/4
L: 1/8
K: Gmaj
|:GB GB|GB c/B/A/G/|FA FA|FA B/A/G/F/|
GB GB| GB d2|c/B/A/G/ F/G/A/c/| BG G2:|
|:gf ed| Bc d2| gf ed| Bc A2|
gf ed| Bc d2|c/B/A/G/ F/G/A/c/|BG G2:|


Tune 85	Setting 12592

